X:1
T:I Know Who Holds Tomorrow
M:C
L:1/4
K:Bb
N:

|B,C|(E4 |E)^CEG|F (D3|D2) CB|(G4|G)BAG|(F4|F2)B_B|(B4|B)BAG|B(F3|F2)ED|
